proprietary/assets/icons/medisch/dna-op-beeldscherm.svg

<svg enable-background="new 0 0 64 64" height="64" viewBox="0 0 64 64" width="64" xmlns="http://www.w3.org/2000/svg"><path d="m0 0h64v64h-64z" fill="none"/><path d="m23.1 37h3c0-.4-.1-.7-.1-1.1l12-.8c0 .6 0 1.2-.1 1.9h3c.7-6.3-2.6-9.3-5.9-11.5 3.4-2.2 6.6-5.2 5.9-11.5h-3c.1.7.1 1.3.1 1.9l-11.9-.9c0-.3.1-.7.1-1.1h-3c-.7 6.3 2.5 9.3 5.9 11.5-3.4 2.3-6.6 5.3-6 11.6zm3-19.9 11.6.8c-.2.6-.4 1.1-.6 1.5l-10.4-.4c-.3-.6-.5-1.2-.6-1.9zm2.1 4 7.3.3c-1 .9-2.2 1.6-3.5 2.4-1.5-.9-2.8-1.7-3.8-2.7zm3.8 6.1c1.3.8 2.5 1.5 3.5 2.4l-7.3.3c1-1 2.3-1.8 3.8-2.7zm-5.3 4.8 10.3-.4c.3.5.5 1 .6 1.5l-11.6.8c.2-.7.4-1.3.7-1.9z"/><path d="m55 7h-46c-1.1 0-2 .9-2 2v35c0 1.1.9 2 2 2h16.5s-.5 1.9-1.5 5c-.6 1.8-2.4 2-2.9 2h-2.1c-.6 0-1 .4-1 1v2h28v-2c0-.6-.4-1-1-1h-2.1c-.5 0-2.3-.2-2.9-2-.4-1.2-.7-2.3-.9-3.1 0 0-4.4-.6-9-1.5-.3-.1-.3-.3-.2-.4h25.1c1.1 0 2-.9 2-2v-35c0-1.1-.9-2-2-2zm-3 32h-40v-27h40z"/></svg>

<?xml version="1.0" encoding="utf-8"?>
<!-- Generator: Adobe Illustrator 22.1.0, SVG Export Plug-In . SVG Version: 6.00 Build 0)  -->
<!DOCTYPE svg PUBLIC "-//W3C//DTD SVG 1.1//EN" "http://www.w3.org/Graphics/SVG/1.1/DTD/svg11.dtd">
<svg version="1.1" xmlns="http://www.w3.org/2000/svg" xmlns:xlink="http://www.w3.org/1999/xlink" x="0px" y="0px" width="64px"
	 height="64px" viewBox="0 0 64 64" style="enable-background:new 0 0 64 64;" xml:space="preserve">
<style type="text/css">
	.st0{fill:none;}
	.st1{fill:#FFFFFF;}
</style>
<g id="_x36_4px_Box">
	<rect class="st0" width="64" height="64"/>
</g>
<g id="Icon">
	<g>
		<path d="M23.1,37h3c0-0.4-0.1-0.7-0.1-1.1L38,35.1c0,0.6,0,1.2-0.1,1.9h3c0.7-6.3-2.6-9.3-5.9-11.5c3.4-2.2,6.6-5.2,5.9-11.5h-3
			c0.1,0.7,0.1,1.3,0.1,1.9l-11.9-0.9c0-0.3,0.1-0.7,0.1-1.1h-3c-0.7,6.3,2.5,9.3,5.9,11.5C25.7,27.7,22.5,30.7,23.1,37z M26.1,17.1
			l11.6,0.8c-0.2,0.6-0.4,1.1-0.6,1.5L26.7,19C26.4,18.4,26.2,17.8,26.1,17.1z M28.2,21.1l7.3,0.3c-1,0.9-2.2,1.6-3.5,2.4
			C30.5,22.9,29.2,22.1,28.2,21.1z M32,27.2c1.3,0.8,2.5,1.5,3.5,2.4l-7.3,0.3C29.2,28.9,30.5,28.1,32,27.2z M26.7,32l10.3-0.4
			c0.3,0.5,0.5,1,0.6,1.5l-11.6,0.8C26.2,33.2,26.4,32.6,26.7,32z"/>
		<path d="M55,7H9C7.9,7,7,7.9,7,9v35c0,1.1,0.9,2,2,2h16.5c0,0-0.5,1.9-1.5,5c-0.6,1.8-2.4,2-2.9,2H19c-0.6,0-1,0.4-1,1v2h28v-2
			c0-0.6-0.4-1-1-1h-2.1c-0.5,0-2.3-0.2-2.9-2c-0.4-1.2-0.7-2.3-0.9-3.1c0,0-4.4-0.6-9-1.5c-0.3-0.1-0.3-0.3-0.2-0.4H55
			c1.1,0,2-0.9,2-2V9C57,7.9,56.1,7,55,7z M52,39H12V12h40V39z"/>
	</g>
</g>
</svg>
